icons/verify-a.svg

<svg width="24" height="24" viewBox="0 0 24 24" fill="none" xmlns="http://www.w3.org/2000/svg">
<path fill-rule="evenodd" clip-rule="evenodd" d="M8.19799 4.40574L8.09706 6.01998L8.09418 6.04302C7.94699 7.22058 7.04711 7.95089 6.05608 8.09247L6.02656 8.09669L4.4057 8.19798C3.78616 8.25431 3.54904 8.94506 3.91053 9.35173L3.91848 9.36068L4.90668 10.5465C5.69547 11.3633 5.6265 12.5897 4.92614 13.4301L3.91848 14.6393L3.91053 14.6483C3.54905 15.0549 3.78616 15.7457 4.40568 15.802L6.01998 15.9029L6.04304 15.9058C7.22065 16.053 7.95087 16.953 8.09244 17.9439L8.09665 17.9735L8.19799 19.5943C8.25432 20.2138 8.94504 20.4509 9.3517 20.0894L9.36065 20.0815L10.5465 19.0933C11.3633 18.3045 12.5897 18.3735 13.4302 19.0738L14.6394 20.0815L14.6483 20.0894C15.055 20.4509 15.7457 20.2138 15.802 19.5943L15.9029 17.98L15.9058 17.957C16.053 16.7794 16.9529 16.0491 17.9439 15.9075L17.9734 15.9033L19.5943 15.802C20.2138 15.7457 20.451 15.0549 20.0895 14.6483L20.0815 14.6393L19.0933 13.4535C18.3045 12.6367 18.3735 11.4103 19.0739 10.5699L20.0815 9.36068L20.0895 9.35173C20.451 8.94506 20.2138 8.25431 19.5943 8.19798L17.98 8.0971L17.957 8.09422C16.7793 7.94701 16.0491 7.04703 15.9076 6.05606L15.9033 6.02655L15.802 4.40574C15.7457 3.78618 15.055 3.54909 14.6483 3.91056L14.6394 3.91852L13.4531 4.90705C12.6654 5.66433 11.3346 5.66433 10.5469 4.90705L9.36065 3.91852L9.3517 3.91056C8.94504 3.54909 8.25432 3.78618 8.19799 4.40574ZM10.3385 2.7808C8.9465 1.5567 6.85022 2.51632 6.7026 4.28772L6.70196 4.29546L6.60309 5.87684C6.54475 6.27905 6.2591 6.53873 5.8697 6.60356L4.29544 6.70194L4.28769 6.70259C2.51626 6.85021 1.55667 8.94655 2.78078 10.3385L3.79559 11.5563L3.81965 11.5803C4.00304 11.7637 4.06574 12.1195 3.77381 12.4699L2.78078 13.6615C1.55667 15.0535 2.51626 17.1498 4.28769 17.2974L4.29544 17.2981L5.87687 17.3969C6.27902 17.4552 6.53869 17.7409 6.60353 18.1303L6.70196 19.7045L6.7026 19.7123C6.85022 21.4837 8.94649 22.4433 10.3385 21.2192L11.5563 20.2044L11.5803 20.1803C11.7637 19.9969 12.1196 19.9342 12.4699 20.2262L13.6615 21.2192C15.0535 22.4433 17.1498 21.4837 17.2974 19.7123L17.298 19.7045L17.3969 18.1232C17.4552 17.721 17.7409 17.4613 18.1303 17.3964L19.7046 17.2981L19.7123 17.2974C21.4837 17.1498 22.4433 15.0535 21.2192 13.6615L20.2044 12.4437L20.1804 12.4197C19.997 12.2363 19.9343 11.8805 20.2262 11.5301L21.2192 10.3385C22.4433 8.94652 21.4837 6.85021 19.7123 6.70259L19.7046 6.70194L18.1231 6.60312C17.721 6.54478 17.4613 6.25913 17.3965 5.86967L17.298 4.29546L17.2974 4.28772C17.1498 2.51631 15.0535 1.55669 13.6615 2.78081L12.4437 3.79562L12.4197 3.81968C12.2126 4.02678 11.7874 4.02678 11.5803 3.81968L11.5563 3.79562L10.3385 2.7808Z" fill="black"/>
</svg>

<svg xmlns="http://www.w3.org/2000/svg" fill="none" viewBox="0 0 24 24">
  <path fill="#000" fill-rule="evenodd" d="m8.198 4.406-.1 1.614-.004.023c-.147 1.178-1.047 1.908-2.038 2.05l-.03.004-1.62.101c-.62.056-.857.747-.495 1.154l.007.009.989 1.185c.788.817.72 2.044.02 2.884l-1.009 1.21-.007.008c-.362.407-.125 1.098.495 1.154l1.614.1.023.004c1.178.147 1.908 1.047 2.05 2.038l.004.03.101 1.62c.056.62.747.857 1.154.495l.009-.008 1.185-.988c.817-.788 2.044-.72 2.884-.02l1.21 1.008.008.008c.407.362 1.098.125 1.154-.495l.1-1.614.004-.023c.147-1.178 1.047-1.908 2.038-2.05l.03-.004 1.62-.101c.62-.056.857-.747.495-1.154l-.008-.009-.988-1.185c-.788-.817-.72-2.044-.02-2.884l1.008-1.21.009-.008c.361-.407.124-1.098-.496-1.154l-1.614-.1-.023-.004c-1.178-.147-1.908-1.047-2.05-2.038l-.004-.03-.101-1.62c-.056-.62-.747-.857-1.154-.495l-.009.008-1.186.988c-.788.757-2.118.757-2.906 0L9.36 3.919l-.01-.008c-.406-.362-1.097-.125-1.153.495Zm2.14-1.625C8.947 1.557 6.85 2.516 6.704 4.288l-.001.007-.099 1.582c-.058.402-.344.662-.733.727l-1.575.098h-.007c-1.772.148-2.731 2.245-1.507 3.636l1.015 1.218.024.024c.183.184.246.54-.046.89l-.995 1.19c-1.224 1.393-.265 3.489 1.507 3.636l.007.001 1.582.099c.402.058.662.344.727.733l.098 1.575v.007c.148 1.772 2.244 2.731 3.636 1.507l1.218-1.015.024-.024c.184-.183.54-.246.89.046l1.191.993c1.393 1.224 3.489.265 3.636-1.507l.001-.008.099-1.58c.058-.403.344-.663.733-.728l1.575-.098h.007c1.772-.148 2.731-2.244 1.507-3.636l-1.015-1.218-.024-.024c-.183-.184-.246-.54.046-.89l.993-1.191c1.224-1.392.265-3.489-1.507-3.636l-.007-.001-1.582-.099c-.402-.058-.662-.344-.727-.733l-.098-1.575v-.007c-.148-1.772-2.244-2.731-3.636-1.507l-1.218 1.015-.024.024c-.207.207-.633.207-.84 0l-.024-.024L10.34 2.78Z" clip-rule="evenodd"/>
</svg>
